X:5
T:No.105 The Glenconwell Hornpipe
M:4/4
L:1/8
C:hornpipe
K:D
F>G||A>^GA>F d>cd>A|f>=f^f>A d>cd>B|
A>^GA>F d>cd>F|A>GF>E D>FA,>F|
A>^GA>F d>cd>A|f>=f^f>A d>cd>B|
A>dc>B (3ABA (3GFE|[1(3DFA (3dAF D2F>G:|
[2(3DFA (3dAF D2E>F||G>FG>B (3edc (3BAG|
F>=F^F>A (3dcB (3AGF|E>_E=E>d (3cBA (3GFE|
(3DCD (3FDB, A,2E>F|G>FG>B (3edc (3BAG|
F>=F^F>A (3dcB (3AGF|E>dc>B A>GF>D|
[1(3DFA (3dAF D2E>F:|[2D>dA>F D>FG>^G||
